static/images/nav-logo-display.svg

<svg height="1024" viewBox="0 0 2048 1024" width="2048" xmlns="http://www.w3.org/2000/svg" xmlns:xlink="http://www.w3.org/1999/xlink"><linearGradient id="a" x1="85.0995%" x2="15.512071%" y1="23.760352%" y2="76.010278%"><stop offset="0" stop-color="#0a87f5"/><stop offset="1" stop-color="#dc1eb9"/></linearGradient><g fill="none" fill-rule="evenodd"><path d="m0 0h2048v1024h-2048z" fill="#f0f0f0"/><g transform="translate(724 212)"><rect fill="#fff" height="600" rx="300" stroke="#e6e6e6" stroke-width="29.296875" width="600"/><path d="m394.40918 169.921875c7.613525 0 13.791357 6.46062 13.914152 14.051849l.001863.230378v101.80664c0 .161802.131167.292969.292969.292969h21.459961c7.766504 0 14.0625 6.295996 14.0625 14.0625s-6.295996 14.0625-14.0625 14.0625h-21.459961c-.161802 0-.292969.131167-.292969.292969v100.927734c0 7.613525-5.38385 13.432434-12.953543 13.548051l-.23005.001754h-1.464844c-6.128311 0-10.482341-3.548563-14.808648-8.549818l-.206001-.239245-82.787613-105.868946c-.055526-.071006-.140646-.112499-.230785-.112499h-75.62418c-.161802 0-.292968.131167-.292969.292969v100.927734c0 7.613525-6.101696 14.150281-14.041081 14.282227h-.241145c-7.613525 0-13.791357-6.46062-13.914153-14.051849l-.001863-.230378v-100.927734c0-.161802-.131166-.292969-.292968-.292969h-21.313477c-7.766504 0-14.0625-6.295996-14.0625-14.0625s6.295996-14.0625 14.0625-14.0625h21.313477c.161802 0 .292968-.131167.292968-.292969v-101.074219c0-7.613525 6.46062-14.15028 14.051849-14.280254l.230378-.001972h4.02832c6.388973 0 10.369794 3.096194 14.276518 7.954838l.37192.468013 83.991714 107.114371c.055535.070824.140542.112192.230544.112192h71.124421c.161803 0 .292969-.131167.292969-.292969v-101.80664c0-7.613526 6.101697-14.150281 14.041081-14.282227zm-14.575196 144.506836h-48.610868c-.161803 0-.292969.131167-.292969.292969 0 .065545.02198.129197.062425.180776l48.610868 61.993385c.09984.127326.283995.149608.411321.049768.070824-.055536.112192-.140543.112192-.230544v-61.993385c0-.161802-.131166-.292969-.292969-.292969zm-160.107422-96.41538v67.997411c0 .161802.131167.292969.292969.292969h53.172823c.161802 0 .292969-.131167.292969-.292969 0-.065411-.021891-.128942-.062184-.180469l-53.172823-67.997411c-.099671-.127459-.283796-.149986-.411254-.050315-.071006.055525-.1125.140646-.1125.230784z" fill="url(#a)" fill-rule="nonzero"/></g></g></svg>

<?xml version="1.0" encoding="UTF-8"?>
<svg width="2048px" height="1024px" viewBox="0 0 2048 1024" version="1.1" xmlns="http://www.w3.org/2000/svg" xmlns:xlink="http://www.w3.org/1999/xlink">
    <!-- Generator: Sketch 63.1 (92452) - https://sketch.com -->
    <title>nav-logo-display</title>
    <desc>Created with Sketch.</desc>
    <defs>
        <linearGradient x1="85.0995%" y1="23.7603521%" x2="15.5120713%" y2="76.010278%" id="linearGradient-1">
            <stop stop-color="#0A87F5" offset="0%"></stop>
            <stop stop-color="#DC1EB9" offset="100%"></stop>
        </linearGradient>
    </defs>
    <g id="nav-logo-display" stroke="none" stroke-width="1" fill="none" fill-rule="evenodd">
        <rect fill="#F0F0F0" x="0" y="0" width="2048" height="1024"></rect>
        <g id="N" transform="translate(724.000000, 212.000000)">
            <rect id="Background" stroke="#E6E6E6" stroke-width="29.296875" fill="#FFFFFF" x="0" y="0" width="600" height="600" rx="300"></rect>
            <path d="M394.40918,169.921875 C402.022705,169.921875 408.200537,176.382495 408.323332,183.973724 L408.325195,184.204102 L408.325195,286.010742 C408.325195,286.172544 408.456362,286.303711 408.618164,286.303711 L430.078125,286.303711 L430.078125,286.303711 C437.844629,286.303711 444.140625,292.599707 444.140625,300.366211 C444.140625,308.132715 437.844629,314.428711 430.078125,314.428711 L408.618164,314.428711 C408.456362,314.428711 408.325195,314.559878 408.325195,314.72168 L408.325195,415.649414 L408.325195,415.649414 C408.325195,423.262939 402.941345,429.081848 395.371652,429.197465 L395.141602,429.199219 L393.676758,429.199219 C387.548447,429.199219 383.194417,425.650656 378.86811,420.649401 L378.662109,420.410156 L295.874496,314.54121 C295.81897,314.470204 295.73385,314.428711 295.643711,314.428711 L220.019531,314.428711 C219.857729,314.428711 219.726563,314.559878 219.726562,314.72168 L219.726562,415.649414 L219.726562,415.649414 C219.726562,423.262939 213.624866,429.799695 205.685481,429.931641 L205.444336,429.931641 C197.830811,429.931641 191.652979,423.471021 191.530183,415.879792 L191.52832,415.649414 L191.52832,314.72168 C191.52832,314.559878 191.397154,314.428711 191.235352,314.428711 L169.921875,314.428711 L169.921875,314.428711 C162.155371,314.428711 155.859375,308.132715 155.859375,300.366211 C155.859375,292.599707 162.155371,286.303711 169.921875,286.303711 L191.235352,286.303711 C191.397154,286.303711 191.52832,286.172544 191.52832,286.010742 L191.52832,184.936523 L191.52832,184.936523 C191.52832,177.322998 197.98894,170.786243 205.580169,170.656269 L205.810547,170.654297 L209.838867,170.654297 C216.22784,170.654297 220.208661,173.750491 224.115385,178.609135 L224.487305,179.077148 L308.479019,286.191519 C308.534554,286.262343 308.619561,286.303711 308.709563,286.303711 L379.833984,286.303711 C379.995787,286.303711 380.126953,286.172544 380.126953,286.010742 L380.126953,184.204102 L380.126953,184.204102 C380.126953,176.590576 386.22865,170.053821 394.168034,169.921875 L394.40918,169.921875 Z M379.833984,314.428711 L331.223116,314.428711 C331.061313,314.428711 330.930147,314.559878 330.930147,314.72168 C330.930147,314.787225 330.952127,314.850877 330.992572,314.902456 L379.60344,376.895841 C379.70328,377.023167 379.887435,377.045449 380.014761,376.945609 C380.085585,376.890073 380.126953,376.805066 380.126953,376.715065 L380.126953,314.72168 C380.126953,314.559878 379.995787,314.428711 379.833984,314.428711 Z M219.726562,218.013331 L219.726562,286.010742 C219.726562,286.172544 219.857729,286.303711 220.019531,286.303711 L273.192354,286.303711 C273.354156,286.303711 273.485323,286.172544 273.485323,286.010742 C273.485323,285.945331 273.463432,285.8818 273.423139,285.830273 L220.250316,217.832862 C220.150645,217.705403 219.96652,217.682876 219.839062,217.782547 C219.768056,217.838072 219.726562,217.923193 219.726562,218.013331 Z" id="Shape" fill="url(#linearGradient-1)" fill-rule="nonzero"></path>
        </g>
    </g>
</svg>
